icons/stackoverflow.svg

<svg aria-labelledby="simpleicons-stackoverflow-icon" role="img" viewBox="0 0 24 24" xmlns="http://www.w3.org/2000/svg"><title id="simpleicons-stackoverflow-icon">Stack Overflow icon</title><path d="M18.986 21.865v-6.404h2.134V24H1.844v-8.539h2.13v6.404h15.012zM6.111 19.731H16.85v-2.137H6.111v2.137zm.259-4.852l10.48 2.189.451-2.07-10.478-2.187-.453 2.068zm1.359-5.056l9.705 4.53.903-1.95-9.706-4.53-.902 1.936v.014zm2.715-4.785l8.217 6.855 1.359-1.62-8.216-6.853-1.35 1.617-.01.001zM15.751 0l-1.746 1.294 6.405 8.604 1.746-1.294L15.749 0h.002z"/></svg>

<?xml version="1.0" standalone="no"?><!-- Generator: Gravit.io --><svg xmlns="http://www.w3.org/2000/svg" xmlns:xlink="http://www.w3.org/1999/xlink" style="isolation:isolate" viewBox="0 0 24 24" width="24" height="24"><path d=" M 18.986 21.865 L 18.986 15.461 L 21.12 15.461 L 21.12 24 L 1.844 24 L 1.844 15.461 L 3.974 15.461 L 3.974 21.865 L 18.986 21.865 L 18.986 21.865 L 18.986 21.865 Z  M 6.111 19.731 L 16.85 19.731 L 16.85 17.594 L 6.111 17.594 L 6.111 19.731 L 6.111 19.731 L 6.111 19.731 Z  M 6.37 14.879 L 16.85 17.068 L 17.301 14.998 L 6.823 12.811 L 6.37 14.879 L 6.37 14.879 L 6.37 14.879 Z  M 7.729 9.823 L 17.434 14.353 L 18.337 12.403 L 8.631 7.873 L 7.729 9.809 L 7.729 9.823 L 7.729 9.823 L 7.729 9.823 Z  M 10.444 5.038 L 18.661 11.893 L 20.02 10.273 L 11.804 3.42 L 10.454 5.037 L 10.444 5.038 L 10.444 5.038 L 10.444 5.038 Z  M 15.751 0 L 14.005 1.294 L 20.41 9.898 L 22.156 8.604 L 15.749 0 L 15.751 0 L 15.751 0 L 15.751 0 Z " fill="rgb(27,94,32)"/></svg>
